X:1
T:Veritas de terra
T:Veritas de terra
T:Leonard Heydenhamer
T:Source : Trium vocum cantiones---Nürnberg---J.Petreius---1541. Editor : André Vierendeels  (15/04/16).
T:Notes : Original clefs   C1 (from m 41 in C2) C3 F4 (from m 12 in F3, from m 26 in F4, from m 41 in F3) Original note values have been halved Editorial accidentals above the staff Square brackets indicate ligatures See also the "Secunda pars: Etenim Dominus" by the same composer
T:Prima pars
C:Leonard Heydenhamer
%%score 1 2 3
L:1/8
Q:1/4=120
M:2/2
K:C
V:1 treble nm="Alto" snm="A"
V:2 treble-8 nm="Tenor" snm="T"
V:3 bass nm="Bass" snm="B"
V:1
 z8 | z8 | z8 | z8 | z8 | z8 | z8 | z8 | E4 A4- | A2 GF G2 A2 | E8 | G4 A2 B2 | c4 G4 | A4 B4 | %14
w: ||||||||Ve- *|* * * * ri-|tas|de ter- ra|or- ta|est, _|
 c8 | z8 | z8 | z8 | G3 A B2 c2- | c2 B4 A2 | G2 F2 E2 G2 | GF E4 D2 | E8- | E8 | z8 | z8 | z8 | %27
w: _||||or- * * *|||* * * ta|est.|_||||
 G6 G2 | G4 G4 | A8 | A4 A4 | B8 | B8 | c8 | B3 A GF E2- | E2 D2 G4 | F2 E4 DC | B,2 E2 D4 | %38
w: Et iu-|sti- ci-|a|de coe-|lo|pro-|spe-|xit, _ _ _ _|_ _ _||* pro- spe-|
 C4 z4 | z8 | A,3 B, C2 D2 | E3 F GA B2- | BA A4 G2 | A8 |] %44
w: xit,||pro- * * *||* * spe- *|xit.|
V:2
 z8 | z8 | E4 A4- |"^#" A2 GF G2 A2 | E8 | G4 A2 B2 | c4 G4 | A4 B4 | c8- | c8 | z4 z2 c2- | %11
w: ||Ve- *|* * * * ri-|tas|de ter- ra|or- *|ta- *|est,|_|de-|
 c2 B2 c2 d2 | e2 f4 e2 | f4 g4 | c3 d e2 f2- | f2 e4 d2 | c2 B2 A2 c2 | B2 e4 d2 | e8 | A2 B2 c4 | %20
w: * * ter- ra|or- * *||||* * * ta|est [de ter-|ra|or- * *|
 G2 A4 G2 | E4 F4 | E8 | z4 G4 | E3 F G2 A2- | ABcd e2 f2- | fe e4 d2 | e2 dc B2 c2- | c2 BA B4 | %29
w: |* ta-|est ].|Et|iu- * * sti-|||||
 A3 B c2 d2- | d2 cB c2 d2 | G4 z4 | z4 z2 G2 | A2 G4 F2 | G8- | G4 E4 | A8 | G2 c4 B2 | A4 G2 c2 | %39
w: |* * * * ci-|a|de|coe- lo pro-|spe-|||||
 B2 A4 G2 | A2 e4 d2 | c4 B4 | G2 A2 B4 | A8 |] %44
w: |xit, pro- spe-|||xit.|
V:3
 A,,4 D,4- | D,2 C,B,, C,2 D,2 | A,,8 | D,4 E,2 F,2 | G,6 C,2- | C,2 B,,2 C,2 D,2 | E,2 F,4 E,2 | %7
w: Ve- *|* * * * ri-|tas|_ _ _|* de|_ _ _ _|ter- * *|
 F,4 G,4 | C,4 F,4- | F,2 E,D, E,2 A,2- | A,2 G,2 A,4 | E,4 z4 | z8 | z4 G,4 | A,6 F,2 | %15
w: ra or-|||* * ta|est,||de|ter- ra|
 A,2 G,2 F,4 | E,2 G,2 F,2 E,2- | E,2 G,2 A,2 B,2 | C4 G,2 A,2- | A,2 G,2 F,4 | E,2 D,2 C,2 B,,2 | %21
w: or- * *|* * ta est,|_ [de or- *||||
 C,4 D,4 | z4 A,,4 | G,,4 C,4- | C,2 B,,A,, B,,2 A,,B,, | C,D,E,F, G,2 A,2- | A,2 G,2 F,4 | E,8- | %28
w: ta est ].|Et|iu- sti-|||* * ci-|a|
 E,8 | z8 | z8 | E,4 D,2 E,2- | E,2 D,C, D,2 E,2 | C,2 B,,2 A,,4 | G,,6 C,2- | C,2 B,,2 C,4 | z8 | %37
w: _|||de ccoe- *||||* * lo||
 z2 C,2 D,4 |"^#" F,4 E,4 | D,2 C,2 B,,4 | A,,2 C4 B,2 | A,4 G,2 E,2 | F,4 E,4 | A,,8 |] %44
w: pro- spe-|xit, pro-|spe- * *||||xit.|

